; generated by PrusaSlicer 2.2.0+win64 on 2020-08-10 at 02:26:52 UTC

; 

; external perimeters extrusion width = 0.60mm
; perimeters extrusion width = 0.50mm
; infill extrusion width = 0.50mm
; solid infill extrusion width = 0.50mm
; top infill extrusion width = 0.45mm
; first layer extrusion width = 0.42mm

M73 P0 R124
M73 Q0 S125
M201 X1000 Y1000 Z1000 E5000 ; sets maximum accelerations, mm/sec^2
M203 X200 Y200 Z12 E120 ; sets maximum feedrates, mm/sec
M204 P1250 R1250 T1250 ; sets acceleration (P, T) and retract acceleration (R), mm/sec^2
M205 X8.00 Y8.00 Z0.40 E4.50 ; sets the jerk limits, mm/sec
M205 S0 T0 ; sets the minimum extruding and travel feed rate, mm/sec
M107
M862.3 P "MK3S" ; printer model check
M862.1 P0.4 ; nozzle diameter check
M115 U3.8.1 ; tell printer latest fw version
G90 ; use absolute coordinates
M83 ; extruder relative mode
M104 S215 ; set extruder temp
M140 S60 ; set bed temp
M190 S60 ; wait for bed temp
M109 S215 ; wait for extruder temp
G28 W ; home all without mesh bed level
G80 ; mesh bed leveling
G1 Y-3.0 F1000.0 ; go outside print area
G92 E0.0
G1 X60.0 E9.0 F1000.0 ; intro line
M73 Q0 S125
M73 P0 R124
G1 X100.0 E12.5 F1000.0 ; intro line
G92 E0.0
M221 S95
G21 ; set units to millimeters
G90 ; use absolute coordinates
M83 ; use relative distances for extrusion
M900 K0.06 ; Filament gcode LA 1.5
M900 K30 ; Filament gcode LA 1.0
;BEFORE_LAYER_CHANGE
G92 E0.0
;0.2


G1 E-0.80000 F2100.00000
G1 Z0.600 F10800.000
;AFTER_LAYER_CHANGE
;0.2
G1 X92.558 Y65.240
G1 Z0.200
G1 E0.80000 F2100.00000
M204 S1000
G1 F1200.000
G1 X93.113 Y64.066 E0.04071
G1 X93.811 Y63.257 E0.03349
G1 X94.530 Y62.731 E0.02791
G1 X95.537 Y62.294 E0.03442
G1 X96.667 Y62.125 E0.03583
G1 X153.254 Y62.123 E1.77424
G1 X154.010 Y62.191 E0.02380
G1 X154.951 Y62.469 E0.03076
G1 X155.621 Y62.821 E0.02375
G1 X156.221 Y63.289 E0.02386
G1 X156.858 Y64.025 E0.03052
G1 X157.235 Y64.690 E0.02398
G1 X157.487 Y65.409 E0.02386
G1 X157.625 Y66.394 E0.03120
G1 X157.627 Y143.523 E2.41832
G1 X157.442 Y144.760 E0.03923
G1 X156.887 Y145.934 E0.04071
G1 X156.132 Y146.794 E0.03587
G1 X155.213 Y147.409 E0.03467
G1 X154.375 Y147.729 E0.02813
G1 X153.299 Y147.876 E0.03405
G1 X96.720 Y147.877 E1.77400
G1 X95.486 Y147.691 E0.03911
G1 X94.313 Y147.135 E0.04071
G1 X93.453 Y146.379 E0.03586
G1 X92.839 Y145.460 E0.03468
G1 X92.521 Y144.625 E0.02802
G1 X92.374 Y143.541 E0.03429
G1 X92.373 Y66.477 E2.41629
G1 X92.549 Y65.299 E0.03735
G1 F8640.000
G1 X93.113 Y64.066 E-0.31312
G1 X93.811 Y63.257 E-0.24666
G1 X94.511 Y62.745 E-0.20022
G1 E-0.04000 F2100.00000
G1 Z0.800 F10800.000
G1 X95.588 Y66.159
G1 Z0.200
G1 E0.80000 F2100.00000
G1 F1200.000
G1 X95.649 Y65.997 E0.00542
G1 X95.835 Y65.707 E0.01081
G1 X96.095 Y65.481 E0.01081
G1 X96.409 Y65.338 E0.01081
G1 X96.578 Y65.301 E0.00542
G1 X96.778 Y65.287 E0.00630
G1 X153.223 Y65.287 E1.76979
G1 X153.422 Y65.301 E0.00626
G1 X153.753 Y65.399 E0.01081
G1 X154.043 Y65.585 E0.01081
G1 X154.269 Y65.845 E0.01081
G1 X154.412 Y66.159 E0.01081
G1 X154.449 Y66.328 E0.00542
G1 X154.463 Y66.528 E0.00630
G1 X154.463 Y143.472 E2.41252
G1 X154.449 Y143.672 E0.00630
G1 X154.351 Y144.003 E0.01081
G1 X154.165 Y144.293 E0.01081
G1 X153.905 Y144.519 E0.01081
G1 X153.591 Y144.662 E0.01081
G1 X153.422 Y144.699 E0.00542
G1 X153.222 Y144.713 E0.00630
G1 X96.778 Y144.713 E1.76976
G1 X96.578 Y144.699 E0.00630
G1 X96.247 Y144.601 E0.01081
G1 X95.957 Y144.415 E0.01081
G1 X95.731 Y144.155 E0.01081
G1 X95.588 Y143.841 E0.01081
G1 X95.551 Y143.672 E0.00542
G1 X95.537 Y143.472 E0.00630
G1 X95.537 Y66.528 E2.41252
G1 X95.575 Y66.217 E0.00981
G1 X95.207 Y66.137 F10800.000
G1 F1200.000
G1 X95.305 Y65.840 E0.00982
G1 X95.413 Y65.641 E0.00711
G1 X95.549 Y65.459 E0.00711
G1 X95.709 Y65.299 E0.00711
G1 X95.891 Y65.163 E0.00711
G1 X96.090 Y65.055 E0.00711
G1 X96.302 Y64.975 E0.00711
G1 X96.524 Y64.927 E0.00711
G1 X96.765 Y64.910 E0.00757
G1 X153.237 Y64.910 E1.77064
G1 X153.476 Y64.927 E0.00753
G1 X153.698 Y64.975 E0.00711
G1 X153.910 Y65.055 E0.00711
G1 X154.109 Y65.163 E0.00711
G1 X154.291 Y65.299 E0.00711
G1 X154.451 Y65.459 E0.00711
G1 X154.587 Y65.641 E0.00711
G1 X154.695 Y65.840 E0.00711
G1 X154.775 Y66.052 E0.00711
G1 X154.823 Y66.274 E0.00711
G1 X154.840 Y66.515 E0.00757
G1 X154.840 Y143.485 E2.41336
G1 X154.823 Y143.726 E0.00757
G1 X154.775 Y143.948 E0.00711
G1 X154.695 Y144.160 E0.00711
G1 X154.587 Y144.359 E0.00711
G1 X154.451 Y144.541 E0.00711
G1 X154.291 Y144.701 E0.00711
G1 X154.109 Y144.837 E0.00711
G1 X153.910 Y144.945 E0.00711
G1 X153.698 Y145.025 E0.00711
G1 X153.476 Y145.073 E0.00711
G1 X153.235 Y145.090 E0.00757
G1 X96.765 Y145.090 E1.77060
G1 X96.524 Y145.073 E0.00757
G1 X96.302 Y145.025 E0.00711
G1 X96.090 Y144.945 E0.00711
G1 X95.891 Y144.837 E0.00711
G1 X95.709 Y144.701 E0.00711
G1 X95.549 Y144.541 E0.00711
G1 X95.413 Y144.359 E0.00711
G1 X95.305 Y144.160 E0.00711
G1 X95.225 Y143.948 E0.00711
G1 X95.177 Y143.726 E0.00711
G1 X95.160 Y143.485 E0.00757
G1 X95.160 Y66.515 E2.41336
G1 X95.194 Y66.196 E0.01005
G1 X95.505 Y66.041 F10800.000
G1 F8640.000
G1 X95.305 Y65.840 E-0.08607
G1 X95.413 Y65.641 E-0.05235
G1 X95.549 Y65.459 E-0.05235
G1 X95.709 Y65.299 E-0.05235
G1 X95.891 Y65.163 E-0.05235
G1 X96.090 Y65.055 E-0.05235
G1 X96.302 Y64.975 E-0.05235
G1 X96.524 Y64.927 E-0.05235
G1 X96.765 Y64.910 E-0.05574
G1 X97.855 Y64.910 E-0.25175
G1 E-0.04000 F2100.00000
G1 Z0.800 F10800.000
G1 X97.077 Y144.600
G1 Z0.200
G1 E0.80000 F2100.00000
G1 F1200.000
G1 X95.820 Y143.343 E0.05578
G1 X95.820 Y142.809 E0.01675
G1 X97.441 Y144.430 E0.07194
G1 X97.975 Y144.430 E0.01675
G1 X95.820 Y142.275 E0.09563
G1 X95.820 Y141.742 E0.01675
G1 X98.508 Y144.430 E0.11932
G1 X99.042 Y144.430 E0.01675
G1 X95.820 Y141.208 E0.14302
G1 X95.820 Y140.674 E0.01675
G1 X99.576 Y144.430 E0.16671
G1 X100.110 Y144.430 E0.01675
G1 X95.820 Y140.140 E0.19040
G1 X95.820 Y139.607 E0.01675
G1 X100.643 Y144.430 E0.21409
G1 X101.177 Y144.430 E0.01675
G1 X95.820 Y139.073 E0.23778
G1 X95.820 Y138.539 E0.01675
G1 X101.711 Y144.430 E0.26147
G1 X102.245 Y144.430 E0.01675
G1 X95.820 Y138.005 E0.28516
G1 X95.820 Y137.471 E0.01675
G1 X102.779 Y144.430 E0.30885
G1 X103.312 Y144.430 E0.01675
G1 X95.820 Y136.938 E0.33255
G1 X95.820 Y136.404 E0.01675
G1 X103.846 Y144.430 E0.35624
G1 X104.380 Y144.430 E0.01675
G1 X95.820 Y135.870 E0.37993
G1 X95.820 Y135.336 E0.01675
G1 X104.914 Y144.430 E0.40362
G1 X105.447 Y144.430 E0.01675
G1 X95.820 Y134.803 E0.42731
G1 X95.820 Y134.269 E0.01675
G1 X105.981 Y144.430 E0.45100
G1 X106.515 Y144.430 E0.01675
G1 X95.820 Y133.735 E0.47469
G1 X95.820 Y133.201 E0.01675
G1 X107.049 Y144.430 E0.49838
G1 X107.583 Y144.430 E0.01675
G1 X95.820 Y132.667 E0.52208
G1 X95.820 Y132.134 E0.01675
G1 X108.116 Y144.430 E0.54577
G1 X108.650 Y144.430 E0.01675
G1 X95.820 Y131.600 E0.56946
G1 X95.820 Y131.066 E0.01675
G1 X109.184 Y144.430 E0.59315
M73 Q0 S124
G1 X109.718 Y144.430 E0.01675
G1 X95.820 Y130.532 E0.61684
M73 P0 R123
G1 X95.820 Y129.999 E0.01675
G1 X110.251 Y144.430 E0.64053
G1 X110.785 Y144.430 E0.01675
G1 X95.820 Y129.465 E0.66422
G1 X95.820 Y128.931 E0.01675
G1 X111.319 Y144.430 E0.68791
G1 X111.853 Y144.430 E0.01675
G1 X95.820 Y128.397 E0.71161
G1 X95.820 Y127.863 E0.01675
G1 X112.387 Y144.430 E0.73530
G1 X112.920 Y144.430 E0.01675
G1 X95.820 Y127.330 E0.75899
G1 X95.820 Y126.796 E0.01675
G1 X113.454 Y144.430 E0.78268
G1 X113.988 Y144.430 E0.01675
G1 X95.820 Y126.262 E0.80637
G1 X95.820 Y125.728 E0.01675
G1 X114.522 Y144.430 E0.83006
G1 X115.055 Y144.430 E0.01675
G1 X95.820 Y125.195 E0.85375
G1 X95.820 Y124.661 E0.01675
G1 X115.589 Y144.430 E0.87744
G1 X116.123 Y144.430 E0.01675
G1 X95.820 Y124.127 E0.90113
G1 X95.820 Y123.593 E0.01675
G1 X116.657 Y144.430 E0.92483
G1 X117.191 Y144.430 E0.01675
G1 X95.820 Y123.059 E0.94852
G1 X95.820 Y122.526 E0.01675
G1 X117.724 Y144.430 E0.97221
G1 X118.258 Y144.430 E0.01675
G1 X95.820 Y121.992 E0.99590
G1 X95.820 Y121.458 E0.01675
G1 X118.792 Y144.430 E1.01959
G1 X119.326 Y144.430 E0.01675
G1 X95.820 Y120.924 E1.04328
G1 X95.820 Y120.390 E0.01675
G1 X119.860 Y144.430 E1.06697
G1 X120.393 Y144.430 E0.01675
G1 X95.820 Y119.857 E1.09066
G1 X95.820 Y119.323 E0.01675
G1 X120.927 Y144.430 E1.11436
G1 X121.461 Y144.430 E0.01675
G1 X95.820 Y118.789 E1.13805
G1 X95.820 Y118.255 E0.01675
G1 X121.995 Y144.430 E1.16174
G1 X122.528 Y144.430 E0.01675
G1 X95.820 Y117.722 E1.18543
G1 X95.820 Y117.188 E0.01675
G1 X123.062 Y144.430 E1.20912
G1 X123.596 Y144.430 E0.01675
G1 X95.820 Y116.654 E1.23281
G1 X95.820 Y116.120 E0.01675
G1 X124.130 Y144.430 E1.25650
G1 X124.664 Y144.430 E0.01675
G1 X95.820 Y115.586 E1.28019
G1 X95.820 Y115.053 E0.01675
G1 X125.197 Y144.430 E1.30389
G1 X125.731 Y144.430 E0.01675
G1 X95.820 Y114.519 E1.32758
G1 X95.820 Y113.985 E0.01675
G1 X126.265 Y144.430 E1.35127
G1 X126.799 Y144.430 E0.01675
G1 X95.820 Y113.451 E1.37496
G1 X95.820 Y112.918 E0.01675
G1 X127.332 Y144.430 E1.39865
G1 X127.866 Y144.430 E0.01675
G1 X95.820 Y112.384 E1.42234
G1 X95.820 Y111.850 E0.01675
G1 X128.400 Y144.430 E1.44603
M73 Q1 S123
G1 X128.934 Y144.430 E0.01675
G1 X95.820 Y111.316 E1.46972
M73 P1 R122
G1 X95.820 Y110.782 E0.01675
G1 X129.468 Y144.430 E1.49342
G1 X130.001 Y144.430 E0.01675
G1 X95.820 Y110.249 E1.51711
G1 X95.820 Y109.715 E0.01675
G1 X130.535 Y144.430 E1.54080
G1 X131.069 Y144.430 E0.01675
G1 X95.820 Y109.181 E1.56449
G1 X95.820 Y108.647 E0.01675
G1 X131.603 Y144.430 E1.58818
G1 X132.136 Y144.430 E0.01675
G1 X95.820 Y108.114 E1.61187
G1 X95.820 Y107.580 E0.01675
G1 X132.670 Y144.430 E1.63556
G1 X133.204 Y144.430 E0.01675
G1 X95.820 Y107.046 E1.65925
G1 X95.820 Y106.512 E0.01675
G1 X133.738 Y144.430 E1.68295
G1 X134.272 Y144.430 E0.01675
G1 X95.820 Y105.978 E1.70664
G1 X95.820 Y105.445 E0.01675
G1 X134.805 Y144.430 E1.73033
G1 X135.339 Y144.430 E0.01675
G1 X95.820 Y104.911 E1.75402
G1 X95.820 Y104.377 E0.01675
G1 X135.873 Y144.430 E1.77771
G1 X136.407 Y144.430 E0.01675
G1 X95.820 Y103.843 E1.80140
G1 X95.820 Y103.310 E0.01675
G1 X136.940 Y144.430 E1.82509
G1 X137.474 Y144.430 E0.01675
G1 X95.820 Y102.776 E1.84878
G1 X95.820 Y102.242 E0.01675
G1 X138.008 Y144.430 E1.87248
G1 X138.542 Y144.430 E0.01675
G1 X95.820 Y101.708 E1.89617
G1 X95.820 Y101.174 E0.01675
G1 X139.076 Y144.430 E1.91986
G1 X139.609 Y144.430 E0.01675
G1 X95.820 Y100.641 E1.94355
G1 X95.820 Y100.107 E0.01675
G1 X140.143 Y144.430 E1.96724
M73 Q2 S122
G1 X140.677 Y144.430 E0.01675
G1 X95.820 Y99.573 E1.99093
M73 P2 R121
G1 X95.820 Y99.039 E0.01675
G1 X141.211 Y144.430 E2.01462
G1 X141.744 Y144.430 E0.01675
G1 X95.820 Y98.506 E2.03831
G1 X95.820 Y97.972 E0.01675
G1 X142.278 Y144.430 E2.06201
G1 X142.812 Y144.430 E0.01675
G1 X95.820 Y97.438 E2.08570
G1 X95.820 Y96.904 E0.01675
G1 X143.346 Y144.430 E2.10939
G1 X143.880 Y144.430 E0.01675
G1 X95.820 Y96.370 E2.13308
G1 X95.820 Y95.837 E0.01675
G1 X144.413 Y144.430 E2.15677
G1 X144.947 Y144.430 E0.01675
G1 X95.820 Y95.303 E2.18046
G1 X95.820 Y94.769 E0.01675
G1 X145.481 Y144.430 E2.20415
G1 X146.015 Y144.430 E0.01675
G1 X95.820 Y94.235 E2.22784
G1 X95.820 Y93.702 E0.01675
G1 X146.548 Y144.430 E2.25153
G1 X147.082 Y144.430 E0.01675
G1 X95.820 Y93.168 E2.27523
G1 X95.820 Y92.634 E0.01675
G1 X147.616 Y144.430 E2.29892
G1 X148.150 Y144.430 E0.01675
G1 X95.820 Y92.100 E2.32261
G1 X95.820 Y91.566 E0.01675
G1 X148.684 Y144.430 E2.34630
G1 X149.217 Y144.430 E0.01675
G1 X95.820 Y91.033 E2.36999
G1 X95.820 Y90.499 E0.01675
G1 X149.751 Y144.430 E2.39368
M73 Q3 S121
M73 P3 R120
G1 X150.285 Y144.430 E0.01675
G1 X95.820 Y89.965 E2.41737
G1 X95.820 Y89.431 E0.01675
G1 X150.819 Y144.430 E2.44106
G1 X151.352 Y144.430 E0.01675
G1 X95.820 Y88.898 E2.46476
G1 X95.820 Y88.364 E0.01675
G1 X151.886 Y144.430 E2.48845
G1 X152.420 Y144.430 E0.01675
G1 X95.820 Y87.830 E2.51214
G1 X95.820 Y87.296 E0.01675
G1 X152.954 Y144.430 E2.53583
G1 X153.212 Y144.430 E0.00810
G1 X153.459 Y144.401 E0.00780
G1 X95.820 Y86.762 E2.55824
G1 X95.820 Y86.229 E0.01675
G1 X153.814 Y144.223 E2.57401
G1 X153.949 Y144.106 E0.00561
G1 X154.059 Y143.934 E0.00640
G1 X95.820 Y85.695 E2.58490
G1 X95.820 Y85.161 E0.01675
G1 X154.176 Y143.517 E2.59008
G1 X154.180 Y142.988 E0.01663
G1 X95.820 Y84.627 E2.59026
G1 X95.820 Y84.093 E0.01675
G1 X154.180 Y142.454 E2.59026
G1 X154.180 Y141.920 E0.01675
G1 X95.820 Y83.560 E2.59026
G1 X95.820 Y83.026 E0.01675
G1 X154.180 Y141.386 E2.59026
G1 X154.180 Y140.852 E0.01675
G1 X95.820 Y82.492 E2.59026
M73 Q4 S120
M73 P4 R119
G1 X95.820 Y81.958 E0.01675
G1 X154.180 Y140.319 E2.59026
G1 X154.180 Y139.785 E0.01675
G1 X95.820 Y81.425 E2.59026
G1 X95.820 Y80.891 E0.01675
G1 X154.180 Y139.251 E2.59026
G1 X154.180 Y138.717 E0.01675
G1 X95.820 Y80.357 E2.59026
G1 X95.820 Y79.823 E0.01675
G1 X154.180 Y138.184 E2.59026
G1 X154.180 Y137.650 E0.01675
G1 X95.820 Y79.289 E2.59026
G1 X95.820 Y78.756 E0.01675
G1 X154.180 Y137.116 E2.59026
G1 X154.180 Y136.582 E0.01675
G1 X95.820 Y78.222 E2.59026
G1 X95.820 Y77.688 E0.01675
G1 X154.180 Y136.048 E2.59026
G1 X154.180 Y135.515 E0.01675
G1 X95.820 Y77.154 E2.59026
G1 X95.820 Y76.621 E0.01675
G1 X154.180 Y134.981 E2.59026
G1 X154.180 Y134.447 E0.01675
G1 X95.820 Y76.087 E2.59026
G1 X95.820 Y75.553 E0.01675
G1 X154.180 Y133.913 E2.59026
G1 X154.180 Y133.379 E0.01675
G1 X95.820 Y75.019 E2.59026
G1 X95.820 Y74.485 E0.01675
G1 X154.180 Y132.846 E2.59026
M73 Q4 S119
M73 P4 R118
G1 X154.180 Y132.312 E0.01675
G1 X95.820 Y73.952 E2.59026
G1 X95.820 Y73.418 E0.01675
G1 X154.180 Y131.778 E2.59026
G1 X154.180 Y131.244 E0.01675
G1 X95.820 Y72.884 E2.59026
G1 X95.820 Y72.350 E0.01675
G1 X154.180 Y130.711 E2.59026
G1 X154.180 Y130.177 E0.01675
G1 X95.820 Y71.817 E2.59026
G1 X95.820 Y71.283 E0.01675
G1 X154.180 Y129.643 E2.59026
G1 X154.180 Y129.109 E0.01675
G1 X95.820 Y70.749 E2.59026
G1 X95.820 Y70.215 E0.01675
G1 X154.180 Y128.575 E2.59026
G1 X154.180 Y128.042 E0.01675
G1 X95.820 Y69.681 E2.59026
G1 X95.820 Y69.148 E0.01675
G1 X154.180 Y127.508 E2.59026
G1 X154.180 Y126.974 E0.01675
G1 X95.820 Y68.614 E2.59026
G1 X95.820 Y68.080 E0.01675
G1 X154.180 Y126.440 E2.59026
G1 X154.180 Y125.907 E0.01675
G1 X95.820 Y67.546 E2.59026
G1 X95.820 Y67.013 E0.01675
G1 X154.180 Y125.373 E2.59026
G1 X154.180 Y124.839 E0.01675
G1 X95.824 Y66.483 E2.59008
M73 Q5 S118
M73 P5 R117
G1 X95.831 Y66.378 E0.00329
G1 X95.908 Y66.116 E0.00859
G1 X95.941 Y66.066 E0.00187
G1 X154.180 Y124.305 E2.58490
G1 X154.180 Y123.771 E0.01675
G1 X96.186 Y65.777 E2.57402
G1 X96.356 Y65.661 E0.00646
G1 X96.547 Y65.605 E0.00627
G1 X154.180 Y123.238 E2.55796
G1 X154.180 Y122.704 E0.01675
G1 X97.055 Y65.578 E2.53546
G1 X97.582 Y65.572 E0.01655
G1 X154.180 Y122.170 E2.51205
G1 X154.180 Y121.636 E0.01675
G1 X98.114 Y65.570 E2.48845
G1 X98.647 Y65.570 E0.01675
G1 X154.180 Y121.103 E2.46476
G1 X154.180 Y120.569 E0.01675
G1 X99.181 Y65.570 E2.44107
G1 X99.715 Y65.570 E0.01675
G1 X154.180 Y120.035 E2.41738
G1 X154.180 Y119.501 E0.01675
G1 X100.249 Y65.570 E2.39369
G1 X100.783 Y65.570 E0.01675
G1 X154.180 Y118.967 E2.36999
G1 X154.180 Y118.434 E0.01675
G1 X101.316 Y65.570 E2.34630
G1 X101.850 Y65.570 E0.01675
G1 X154.180 Y117.900 E2.32261
G1 X154.180 Y117.366 E0.01675
G1 X102.384 Y65.570 E2.29892
G1 X102.918 Y65.570 E0.01675
G1 X154.180 Y116.832 E2.27523
G1 X154.180 Y116.299 E0.01675
G1 X103.451 Y65.570 E2.25154
M73 Q6 S117
M73 P6 R116
G1 X103.985 Y65.570 E0.01675
G1 X154.180 Y115.765 E2.22785
G1 X154.180 Y115.231 E0.01675
G1 X104.519 Y65.570 E2.20416
G1 X105.053 Y65.570 E0.01675
G1 X154.180 Y114.697 E2.18046
G1 X154.180 Y114.163 E0.01675
G1 X105.587 Y65.570 E2.15677
G1 X106.120 Y65.570 E0.01675
G1 X154.180 Y113.630 E2.13308
G1 X154.180 Y113.096 E0.01675
G1 X106.654 Y65.570 E2.10939
G1 X107.188 Y65.570 E0.01675
G1 X154.180 Y112.562 E2.08570
G1 X154.180 Y112.028 E0.01675
G1 X107.722 Y65.570 E2.06201
G1 X108.255 Y65.570 E0.01675
G1 X154.180 Y111.495 E2.03832
G1 X154.180 Y110.961 E0.01675
G1 X108.789 Y65.570 E2.01462
G1 X109.323 Y65.570 E0.01675
G1 X154.180 Y110.427 E1.99093
G1 X154.180 Y109.893 E0.01675
G1 X109.857 Y65.570 E1.96724
G1 X110.391 Y65.570 E0.01675
G1 X154.180 Y109.359 E1.94355
G1 X154.180 Y108.826 E0.01675
G1 X110.924 Y65.570 E1.91986
